X: 35381
T: Ross
R: hornpipe
M: 4/4
K: Emajor
|:E2GB egfe|defg a2 (3fga|bgaf gefd|Bagf ecBA|
GEGB egfe|defg a2 ga|bgaf gefd|1 Bagf ecBA:|2 Bagf fede||
|:fB (3BBB gB (3BBB|bBgB fB (3BBB|efga bgaf|gefd BcBA|
GEGB egfe|defg a2 (3fga|bgaf gefd|1 Bagf fede:|2 Bagf ecBA||

